X: 12
T: The Maid At The Well
R: jig
M: 6/8
L: 1/8
K: Amaj
B|:AFE ECE|Ace f2a|ecB BAB|cAF F2G|
AFE ECE|Ace f2a|ecB BAB|[1 cAG AcB:|[2 cAG A2 B||
c2e fee|aee fec|cBA ABc|BAF F2B|
c2e fee|aee fec|cBA ABc|BAG A2B||
c2e fee|aee fec|cBA ABc|BAF F2G|
AFE ECE|Ace f2a|ecB BAB| cAG AcB|]


Tune 752	Setting 13859

